symbols/web/car_rental/materialsymbolsrounded/car_rental_wght100_20px.svg

<svg xmlns="http://www.w3.org/2000/svg" height="20" width="20"><path d="M7.104 5.708q-.833 0-1.406-.562-.573-.563-.573-1.375 0-.833.573-1.406t1.406-.573q.729 0 1.24.468.51.469.677 1.178h5.521q.125 0 .229.104.104.104.104.229T14.781 4q-.093.104-.177.104h-.542v1.292q0 .125-.104.229-.104.104-.229.104t-.229-.104q-.104-.104-.104-.229V4.104H9.021q-.167.708-.688 1.156-.521.448-1.229.448Zm0-.666q.521 0 .906-.375.386-.375.386-.896t-.386-.917q-.385-.396-.906-.396t-.906.396q-.386.396-.386.917t.386.896q.385.375.906.375Zm-.187 9.375q.25 0 .448-.198.197-.198.197-.427 0-.23-.197-.427-.198-.198-.448-.198-.229 0-.417.198-.188.197-.188.427 0 .229.188.427.188.198.417.198Zm6.166 0q.229 0 .427-.198.198-.198.198-.427 0-.23-.198-.427-.198-.198-.427-.198-.229 0-.427.198-.198.197-.198.427 0 .229.198.427.198.198.427.198Zm-7.5 2.458q-.125 0-.229-.104-.104-.104-.104-.229v-4.209l1.146-3.687q.042-.208.219-.334.177-.124.406-.124h5.917q.229 0 .427.114.197.115.239.344l1.146 3.687v4.209q0 .125-.104.229-.104.104-.229.104t-.229-.104q-.105-.104-.105-.229v-.667H5.917v.667q0 .125-.105.229-.104.104-.229.104Zm.521-5.167h7.792L13 8.854H7Zm-.187.667v2.833Zm0 2.833h8.166v-2.833H5.917Z"/></svg>

<svg xmlns="http://www.w3.org/2000/svg" height="20" width="20"><path d="M7.104 5.708Q6.271 5.708 5.698 5.146Q5.125 4.583 5.125 3.771Q5.125 2.938 5.698 2.365Q6.271 1.792 7.104 1.792Q7.833 1.792 8.344 2.26Q8.854 2.729 9.021 3.438H14.542Q14.667 3.438 14.771 3.542Q14.875 3.646 14.875 3.771Q14.875 3.896 14.781 4Q14.688 4.104 14.604 4.104H14.062V5.396Q14.062 5.521 13.958 5.625Q13.854 5.729 13.729 5.729Q13.604 5.729 13.5 5.625Q13.396 5.521 13.396 5.396V4.104H9.021Q8.854 4.812 8.333 5.26Q7.812 5.708 7.104 5.708ZM7.104 5.042Q7.625 5.042 8.01 4.667Q8.396 4.292 8.396 3.771Q8.396 3.25 8.01 2.854Q7.625 2.458 7.104 2.458Q6.583 2.458 6.198 2.854Q5.812 3.25 5.812 3.771Q5.812 4.292 6.198 4.667Q6.583 5.042 7.104 5.042ZM6.917 14.417Q7.167 14.417 7.365 14.219Q7.562 14.021 7.562 13.792Q7.562 13.562 7.365 13.365Q7.167 13.167 6.917 13.167Q6.688 13.167 6.5 13.365Q6.312 13.562 6.312 13.792Q6.312 14.021 6.5 14.219Q6.688 14.417 6.917 14.417ZM13.083 14.417Q13.312 14.417 13.51 14.219Q13.708 14.021 13.708 13.792Q13.708 13.562 13.51 13.365Q13.312 13.167 13.083 13.167Q12.854 13.167 12.656 13.365Q12.458 13.562 12.458 13.792Q12.458 14.021 12.656 14.219Q12.854 14.417 13.083 14.417ZM5.583 16.875Q5.458 16.875 5.354 16.771Q5.25 16.667 5.25 16.542V12.333L6.396 8.646Q6.438 8.438 6.615 8.312Q6.792 8.188 7.021 8.188H12.938Q13.167 8.188 13.365 8.302Q13.562 8.417 13.604 8.646L14.75 12.333V16.542Q14.75 16.667 14.646 16.771Q14.542 16.875 14.417 16.875Q14.292 16.875 14.188 16.771Q14.083 16.667 14.083 16.542V15.875H5.917V16.542Q5.917 16.667 5.812 16.771Q5.708 16.875 5.583 16.875ZM6.104 11.708H13.896L13 8.854H7ZM5.917 12.375V15.208ZM5.917 15.208H14.083V12.375H5.917Z"/></svg>
